X:1
T:Title
%%score [ ( 1 2 ) ( 3 4 ) ( 5 6 ) ( 7 8 ) ]
L:1/8
Q:1/4=120
M:4/4
K:G
V:1 treble nm="S."
V:2 treble 
V:3 treble nm="A."
V:4 treble 
V:5 treble-8 nm="T."
V:6 treble-8 
V:7 bass nm="B."
V:8 bass 
V:1
 z2 B>c | d4 z2 d2 |"^Come again" e2 d2 c3 c | B4 z2"^John Dowland""^(1562 - 1626)" d2 | %4
w: Come a-|gain! Sweet|love doth now in-|vite Thy|
w: ||||
w: But a-|las, my|faith is ev- er|true, Yet|
 d2 c2 B2 B2 | A4 z2 A2 | B2 G2 A3 A | A4 |: z D G2 | z E A2 z F B2 | z G c2 z A d2- | d8 | %12
w: gra- ces, that re-|frain to|do me due de-|light:|to see,|to hear, to touch,|to kiss, to die||
w: ||||||||
w: will she ne- ver|rue Nor|yield me a- ny|grace;|Her eyes|of fire, her heart|of flint is made||
 z dcB A2 z B | AG G2- GF/E/ F2 | G4 :| %15
w: with thee a- gain in|sweet- est sym * pa * *|thy.|
w: |||
w: whom tears nor truth may|once her- self * in * *|vade.|
V:2
 z2 B>c | d4 z2 d2 | e2 d2 c3 c | B4 z2 d2 | d2 c2 B2 B2 | A4 z2 A2 | B2 G2 A3 A | A4 |: z D G2 | %9
w: |||||||||
w: Come a-|gain! That|I may cease to|mourn. Through|thy un- kind dis-|dain: for|now, left and for-|lorn;|I sit,|
w: |||||||||
w: Gen- tle|Love, draw|forth thy wound- ing|dart, Thou|canst not pierce her|heart; For|I that do ap-|prove|By sighs|
 z E A2 z F B2 | z G c2 z A d2- | d8 | z dcB A2 z B | AG G2- G(F/E/ F2) | G4 :| %15
w: ||||||
w: I sigh, I weep,|I faint, I die||in dead- ly pain and|end- less mi * se * *|ry.|
w: ||||||
w: and tears more hot|than are thy shafts||did tempt, while she for|migh- ty tri * umph * *|laughs.|
V:3
 G3 G | G4 z2 B2 | AG G4 F2 | G4 z2 G2 | G2 (E>F) G3 G | F4 z2 F2 | G3 D E3 E | F4 |: D4 | %9
w: Come a-|gain! Sweet|love doth now in-|vite Thy|gra- ces, * that re-|frain to|do me due de-|light:|to|
w: |||||||||
w: But a-|las, my|faith is ev- er|true, Yet|will she * ne- ver|rue Nor|yield me a- ny|grace;|Her|
 E2 z E F2 z F | G2 z G A3 A | B6 A2 | (G>F E)G F3 G | E2 B,C D3 C | B,4 :| %15
w: see, to hear, to|touch, to kiss, to|die, to|die with thee a- gain in|sweet- est * sym- pa-|thy.|
w: ||||||
w: eyes of fire, her|heart of flint is|made, whom|tears * * nor truth my|once her * self in-|vade.|
V:4
 G3 G | G4 z2 B2 | AG G4 F2 | G4 z2 G2 | G2 (E>F) G3 G | F4 z2 F2 | G3 D E3 E | F4 |: D4 | %9
w: |||||||||
w: Come a-|gain! That|I may cease to|mourn. Through|thy un * kind dis-|dain: for|now, left and for-|lorn,|I|
w: |||||||||
w: Gen- tle|Love, draw|forth thy wound- ing|dart, Thou|canst not * pierce her|heart; For|I that do ap-|prove|By|
 E2 z E F2 z F | G2 z G A3 A | B6 A2 | G>F EG F3 G | E2 (B,C) D3 C | B,4 :| %15
w: ||||||
w: sit, I sigh, I|weep, I faint, I|die, I|die in dead- ly pain and|end- less * mi- se-|ry.|
w: ||||||
w: sighs and tears more|hot than are thy|shafts did|tempt, * * while she for|migh- ty * tri- umph|laughs.|
V:5
 d3 d | B4 z2 B2 | c2 d2 e3 (d/c/) | d4 z2 B2 | B2 A2 G2 d2 | d4 z2 d2 | d3 d d2 ^c2 | d4 |: G4 | %9
w: Come a-|gain! Sweet|love doth now in *|vite Thy|gra- ces, that re-|frain to|do me due de-|light:|to|
w: |||||||||
w: But a-|las, my|faith is ev- er *|true, Yet|will she ne- ver|rue Nor|yield me a- ny|grace,|Her|
 G2 z c A2 z d | B2 z e d3 c | BGGA B2 c2 | d2 z G d3 d | cB B (A/G/) A3 A | G4 :| %15
w: see, to hear, to|touch, to kiss, to|die, to die with thee a-|gain, with thee a-|gain in sweet- est * sym- pa-|thy.|
w: ||||||
w: eyes of fire, her|heart of flint is|made, her heart of flint is|made, whom tears nor|truth may once her * self in-|vade.|
V:6
 d3 d | B4 z2 B2 | c2 d2 e3 (d/c/) | d4 z2 B2 | B2 A2 G2 d2 | d4 z2 d2 | d3 d d2 ^c2 | d4 |: G4 | %9
w: |||||||||
w: Come a-|gain! That|I may cease to *|mourn. Through|thy un- kind dis-|dain: for|now, left and for-|lorn;|I|
w: |||||||||
w: Gen- tle|Love, draw|forth thy wound- ing *|dart, Thou|canst not pierce her|heart; For|I that do ap-|prove|By|
 G2 z c A2 z d | B2 z e d3 c | BGGA B2 c2 | d2 z G d3 d | cB B A/G/ A3 A | G4 :| %15
w: ||||||
w: sit, I sigh, I|weep, I faint, I|die, I die in dead- ly|pain, in dead- ly|pain and end- less * mi- se-|ry.|
w: ||||||
w: sighs and tears more|hot than are thy|shafts, more hot than are thy|shafts did tempt, while|she for migh- ty * tri- umph|laughs.|
V:7
 G,2 G,2 | G,4 z2 G,,2 | C,2 B,,2 A,,3 A,, | G,,4 z2 G,,2 | %4
w: Come a-|gain! Sweet|love doth now in-|vite Thy|
w: ||||
w: But a-|las, my|faith is ev- er|true, Yet|
"^This edition ? Andrew Sims 2001" G,,2 A,,2 B,,2 G,,2 | D,4 z2 D,2 | G,,2 B,,2 A,,3 A,, | D,4 |: %8
w: gra- ces, that re-|frain to|do me due de-|light:|
w: ||||
w: will she ne- ver|rue Nor|yield me a- ny|grace;|
 B,,4 | C,3 C, D,3 D, | E,3 E, F,3 F, | G,2 G,,2 G,,2 A,,2 | B,,2 C,2 D,2 B,,2 | C,D, E,2 D,3 D, | %14
w: to|see, to hear, to|touch, to kiss, to|die, to die with|thee a- gain in|sweet- * est sym- pa-|
w: ||||||
w: Her|eyes of fire, her|heart of flint is|made, whom tears, whom|tears nor truth may|once * her- self in-|
 G,,4 :| %15
w: thy.|
w: |
w: vade.|
V:8
 G,2 G,2 | G,4 z2 G,,2 | C,2 B,,2 A,,3 A,, | G,,4 z2 G,,2 | G,,2 A,,2 B,,2 G,,2 | D,4 z2 D,2 | %6
w: ||||||
w: Come a-|gain! That|I may cease to|mourn. Through|thy un- kind dis-|dain: for|
w: ||||||
w: Gen- tle|Love, draw|forth thy wound- ing|dart, Thou|canst not pierce her|heart; for|
 G,,2 B,,2 A,,3 A,, | D,4 |: B,,4 | C,3 C, D,3 D, | E,3 E, F,3 F, | G,2 G,,2 G,,2 A,,2 | %12
w: ||||||
w: now, left and for-|lorn;|I|sit, I sigh, I|weep, I faint, I|die, I die in|
w: ||||||
w: I that do ap-|prove|By|sighs and tears more|hot than are thy|shafts, did tempt, did|
 B,,2 C,2 D,2 B,,2 | (C,D,) E,2 D,3 D, | G,,4 :| %15
w: |||
w: dead- ly pain and|end * less mi- se-|ry.|
w: |||
w: tempt, while she for|migh * ty tri- umphs|laughs.|

